X: 32364
T: Pipe Major Joe Wilson
R: jig
M: 6/8
K: Gmajor
|:DDD GDG|BGd BAG|c2E EEE|A2G FAd|
DDD GDG|BGd BAG|c2A BAG|A4A d:|
|:B3 BGB|d2B BAG|c2E EEE|A2G FAd|
B3 BGB|d2B BAG|c2A BAG|1 A4A d:|2 A4A B|
|:D2B DDD|GDG BAG|c2E EEE|A2G FAd|
D2B DDD|GDG BAG|c2A BAG|1 A4A B:|2 A4A d|
|:B2d G2d|Bdd BAG|c2E EEE|A2G FAd|
[1B2d G2d|Bdd BAG|c2A BAG|A4A d:|
[2DDD GDG|BGd BAG|c2A BAG|A6||

